X: 34779
T: Road To Ruby, The
R: slip jig
M: 9/8
K: Dmixolydian
~A3 BA{c}G Ad.d|AdB cB{c}G E.F.G|ADA BA{c}G AdB|cBG E.F.G {FG}FE{A}D|
~A3 BA{c}G Ad.d|AdB cB{c}G E.F.G|ADA BA{c}G AdB|cBG E.F.G AF{A}D|
d.fa {b}a.fd cd.{g}e|d.fa {b}a.fd e/2.f/2.ga|d.fa {b}a.fd cd{g}.e|dBG E.F.G AF{A}D|
d.fa {b}a.fd cd.{g}e|d2.a {b}afd e/2.f/2.ga|d.fa {b}a.fd cd{g}.e|dBG E.F.G {FG}FE{A}D|

